frontend/public/svg/interface/unlink.svg

<svg width="159" height="74" viewBox="0 0 159 74" fill="none" xmlns="http://www.w3.org/2000/svg">
<g clip-path="url(#clip0)">
<path d="M52.3167 73.2867C55.8224 72.9725 59.2962 72.3721 62.7037 71.4919C63.4118 71.3289 64.1193 71.1673 64.8261 71.0102C65.6017 70.7363 66.2753 70.2332 66.7565 69.5672C67.0497 69.2485 67.354 68.9181 67.7077 68.5981C67.7864 68.5267 67.8468 68.4378 67.8839 68.3391C67.921 68.2398 67.9346 68.134 67.9223 68.0288C67.9106 67.9236 67.8735 67.823 67.815 67.7347C67.7565 67.6465 67.6771 67.5738 67.5848 67.5225C67.0282 67.2109 66.5386 66.9162 66.0893 66.6455C65.2955 66.1314 64.4571 65.69 63.5841 65.3259C57.9455 63.1874 51.9585 62.7291 46.329 62.559C37.4075 62.2858 30.3164 60.6915 24.012 57.5426C13.1978 52.1413 9.1066 41.9968 13.0696 30.4093C16.2179 21.2002 22.1075 15.1763 30.5765 12.5045C35.5486 10.9362 40.7509 9.75737 45.7815 8.61752C47.3719 8.2566 48.9623 7.89647 50.5488 7.52387C52.1353 7.15128 53.7783 6.91175 55.3733 6.68001C56.1204 6.57096 56.8687 6.46193 57.6047 6.3399C57.7151 6.32183 57.8192 6.27634 57.9073 6.20772C57.9954 6.13911 58.065 6.04942 58.1094 5.94703C58.7551 4.45794 58.8773 3.289 58.4826 2.37179C58.3266 2.02643 58.0993 1.71783 57.8156 1.46625C57.5318 1.21467 57.1982 1.02578 56.8363 0.911896C55.3106 0.387517 53.711 0.108626 52.0976 0.0855921C45.0942 -0.145496 38.2865 1.47524 31.7032 3.03897L30.2356 3.38636C16.2315 6.68975 6.91615 15.7742 2.54807 30.386C-0.545601 40.7336 1.61104 50.3426 8.959 58.9474C13.2608 63.9852 18.9203 66.9831 23.8898 69.2505C31.3548 72.6564 39.1481 73.5042 45.9726 73.5042C48.2061 73.4996 50.3362 73.4087 52.3167 73.2867Z" fill="black"/>
<path d="M156.013 23.7791C152.177 12.6434 145.23 6.12294 134.771 3.84062C126.281 1.94898 117.638 0.812498 108.947 0.444454C106.042 0.413073 103.139 0.624074 100.269 1.07535C99.5931 1.16299 98.9176 1.25001 98.2439 1.3305C96.2868 1.56418 95.2595 2.9578 95.4968 5.05836C95.5105 5.17618 95.5553 5.28823 95.6269 5.38292C97.0495 7.27577 99.138 7.22442 100.977 7.18353C101.349 7.17444 101.721 7.16542 102.086 7.17321C113.309 7.39066 123.884 9.78723 132.749 12.1026C140.124 14.0292 144.818 18.9392 147.1 27.1136C147.545 28.7053 147.855 30.3449 148.076 31.5925C149.335 38.7238 148.194 45.0138 144.778 49.781C141.401 54.4949 135.825 57.6691 129.079 58.7188L127.276 58.9985C122.891 59.6749 118.357 60.3747 113.954 61.3626C113.429 61.4808 112.902 61.595 112.374 61.7099C107.902 62.6835 103.278 63.6884 98.11 66.9417C98.0073 67.0059 97.9247 67.0974 97.8694 67.2052C97.8148 67.313 97.7907 67.4337 97.7999 67.5544C97.8083 67.6745 97.8499 67.7907 97.9195 67.8894C97.9891 67.9887 98.0846 68.0666 98.1952 68.1153C99.0879 68.5099 99.8207 68.867 100.465 69.1824C101.426 69.7095 102.446 70.1198 103.505 70.4054C107.646 71.3083 111.874 71.7581 116.114 71.7465C122.876 71.6783 129.603 70.7416 136.127 68.9598C149.62 65.4286 159.697 51.0675 158.59 36.9459C158.287 32.4665 157.422 28.0428 156.013 23.7791Z" fill="black"/>
<path d="M43.3601 32.0497C43.0708 32.0581 42.775 32.0496 42.4772 32.0392C41.5884 31.9582 40.6922 32.0484 39.8374 32.3048C38.9867 32.6806 38.2011 33.1888 37.5102 33.8107C37.1429 34.1041 36.7451 34.4222 36.2919 34.7493C36.2098 34.8086 36.1423 34.8857 36.0944 34.9748C36.0465 35.0639 36.0195 35.1627 36.0155 35.2637C36.0115 35.3647 36.0306 35.4654 36.0712 35.5581C36.1119 35.6506 36.173 35.7327 36.2501 35.7983C36.6598 36.1469 37.0168 36.4934 37.3315 36.7998C37.8762 37.4312 38.558 37.9303 39.325 38.2591C40.8749 38.714 42.4779 38.9645 44.0929 39.0043C52.8486 39.4586 61.0998 39.6911 68.9795 39.6911C82.9616 39.7494 96.9325 38.9038 110.805 37.1596C111.601 37.0071 112.37 36.7402 113.088 36.3675C113.627 36.1286 114.298 35.8321 115.155 35.4926C115.283 35.4419 115.393 35.353 115.468 35.238C115.543 35.1231 115.581 34.9876 115.577 34.8503C115.572 34.7129 115.525 34.5803 115.443 34.4706C115.359 34.3608 115.245 34.2793 115.114 34.2371C114.188 33.9411 113.534 33.7108 113.044 33.5375C112.508 33.3078 111.941 33.1528 111.363 33.0766C108.656 32.8864 105.901 32.6593 103.235 32.4392C96.7388 31.9024 90.0215 31.3479 83.3985 31.2882C73.9842 31.2019 64.4125 31.4759 55.1607 31.7387C51.2289 31.8517 47.2945 31.9633 43.3601 32.0497Z" fill="black"/>
</g>
<defs>
<clipPath id="clip0">
<rect width="158" height="74" fill="white" transform="translate(0.777344)"/>
</clipPath>
</defs>
</svg>

<svg xmlns="http://www.w3.org/2000/svg" width="159" height="74" fill="none" viewBox="0 0 159 74"><g fill="#000" clip-path="url(#a)"><path d="M52.317 73.287a64.6 64.6 0 0 0 10.387-1.795q1.062-.246 2.122-.482a4.04 4.04 0 0 0 1.93-1.443c.294-.318.598-.649.952-.969a.667.667 0 0 0-.123-1.076 53 53 0 0 1-1.496-.877 16 16 0 0 0-2.505-1.32c-5.639-2.138-11.626-2.596-17.255-2.766-8.922-.273-16.013-1.867-22.317-5.016C13.198 52.14 9.107 41.997 13.07 30.409c3.148-9.209 9.038-15.233 17.507-17.904 4.972-1.569 10.174-2.748 15.205-3.887 1.59-.361 3.18-.722 4.767-1.094 1.586-.373 3.23-.612 4.824-.844.747-.109 1.496-.218 2.232-.34a.67.67 0 0 0 .504-.393c.646-1.49.768-2.658.374-3.575a2.7 2.7 0 0 0-1.647-1.46 15.3 15.3 0 0 0-4.738-.826c-7.004-.231-13.812 1.39-20.395 2.953l-1.467.347c-14.004 3.304-23.32 12.388-27.688 27-3.094 10.348-.937 19.957 6.411 28.561 4.302 5.038 9.961 8.036 14.93 10.304 7.466 3.405 15.26 4.253 22.084 4.253a106 106 0 0 0 6.344-.217M156.013 23.78c-3.836-11.137-10.783-17.657-21.242-19.94A147.4 147.4 0 0 0 108.947.445a52 52 0 0 0-8.678.631q-1.014.133-2.025.256c-1.957.233-2.984 1.627-2.747 3.727.013.118.058.23.13.325 1.422 1.893 3.511 1.841 5.35 1.8.372-.009.744-.018 1.109-.01 11.223.218 21.798 2.614 30.663 4.93 7.375 1.926 12.069 6.836 14.351 15.01.445 1.592.755 3.232.976 4.48 1.259 7.13.118 13.42-3.298 18.188-3.377 4.714-8.953 7.888-15.699 8.938l-1.803.28c-4.385.676-8.919 1.376-13.322 2.364q-.788.176-1.58.347c-4.472.974-9.096 1.978-14.264 5.232a.67.67 0 0 0-.31.612.66.66 0 0 0 .395.561 62 62 0 0 1 2.27 1.067c.961.528 1.981.938 3.04 1.223a58.4 58.4 0 0 0 12.609 1.341 79 79 0 0 0 20.013-2.786c13.493-3.531 23.57-17.892 22.463-32.014a53.5 53.5 0 0 0-2.577-13.167"/><path d="M43.36 32.05c-.29.008-.585 0-.883-.01a7 7 0 0 0-2.64.265 8.8 8.8 0 0 0-2.327 1.506c-.367.293-.765.611-1.218.938a.67.67 0 0 0-.042 1.05c.41.348.767.694 1.081 1a5.5 5.5 0 0 0 1.994 1.46c1.55.455 3.153.706 4.768.745 8.756.455 17.007.687 24.886.687a324 324 0 0 0 41.826-2.531 8.4 8.4 0 0 0 2.283-.792 53 53 0 0 1 2.067-.875.667.667 0 0 0-.041-1.256 67 67 0 0 1-2.07-.7 6.4 6.4 0 0 0-1.681-.46c-2.707-.19-5.462-.418-8.128-.638-6.496-.537-13.213-1.091-19.836-1.15-9.415-.087-18.987.187-28.238.45-3.932.113-7.867.224-11.8.31"/></g><defs><clipPath id="a"><path fill="#fff" d="M.777 0h158v74h-158z"/></clipPath></defs></svg>
